X: 41
T: the Lasses of Portsmouth
%%VWML:Thompsons1774-3047-p21-0
F:http://www.vwml.org/record/Thompsons1774/3047/p21
M: C|
L: 1/8
Z: 2011 John Chambers <jc:trillian.mit.edu>
B: Charles & Samuel Thompson eds "Twenty Four Country Dances", London 1774, p.21 #1 
K: Bb
%-------------------------
|: f2fd fdTB2 | c2cA cATF2 | (G/A/)B (B/A/)G (A/B/)c (c/B/)A | GdcB (A/B/)c/A/ F2 |
f2fd fdTB2 | c2cA cATF2 | (G/A/)B (B/A/)G Agfe | dc/B/ d/c/B/A/ B4 :| |: bBTB2 bBTB2 | fdTd2 fdTd2 | geTc2 fdTB2 | edcB A/B/c/A/ Fg/a/ |
bBTB2 bBTB2 | fdTd2 fdTd2 | gecA fdBG | ce d/c/B/A/ B4 :| 
% - - - - - - - - Dance description - - - - - - - -
%%begintext align
%% Turn your Part: cast off & hands 4 with the 3d
%% Cu. .|. turn again cast up & hands 4 at top :|. lead 
%% thro' the 3d Cu. & cast up .|: lead thro' the top 
%% cast off & Right & Left :|:
%%endtext
T: Maccarony Dance 
R: jig
M: 6/8
L: 1/8
Z: 2011 John Chambers <jc:trillian.mit.edu>
B: Charles & Samuel Thompson eds "Twenty Four Country Dances", London 1774, p.21 #2 
K: G
%-------------------------
|: d2d def | gfe dBG | BBB ccc | efg dBG \
| d2ddef|gfedBG|efgBdB|G2GG3:|
|: Bdd Bdd | GAB GAB | ccc BBB | FGA FGA \
| BddBdd|GABBcd|efgBdB|G2GG3:|
% - - - - - - - - Dance description - - - - - - - - %%begintext align
%% Allemand to the Right & cast off .|. Allemand
%% to the Left & cast up :|. lead down 1 Cu. up again %% & cast off .|: Right & Left :|:
%%endtext
